material/.icons/material/high-definition.svg

<svg xmlns="http://www.w3.org/2000/svg" viewBox="0 0 24 24"><path d="M5 7h2v4h2V7h2v10H9v-4H7v4H5V7m8 0h3a3 3 0 013 3v4a3 3 0 01-3 3h-3V7m3 8a1 1 0 001-1v-4a1 1 0 00-1-1h-1v6h1z"/></svg>

<?xml version="1.0" encoding="UTF-8"?><!DOCTYPE svg PUBLIC "-//W3C//DTD SVG 1.1//EN" "http://www.w3.org/Graphics/SVG/1.1/DTD/svg11.dtd"><svg xmlns="http://www.w3.org/2000/svg" xmlns:xlink="http://www.w3.org/1999/xlink" version="1.1" id="mdi-high-definition" width="24" height="24" viewBox="0 0 24 24"><path d="M5,7H7V11H9V7H11V17H9V13H7V17H5V7M13,7H16A3,3 0 0,1 19,10V14A3,3 0 0,1 16,17H13V7M16,15A1,1 0 0,0 17,14V10A1,1 0 0,0 16,9H15V15H16Z" /></svg>
